%
(Header)
(Generated by gcodetools from Inkscape.)
(Using default header. To add your own header create file "header" in the output dir.)
M3
(Header end.)
G21

(Start cutting path id: path4645)
(Change tool to Default tool)

G00 Z5.000000
G00 X128.813613 Y222.427752

G01 Z-1.000000 F100.0
G01 X128.841421 Y215.066576 Z-1.000000 F400.000000
G01 X187.560047 Y215.130715 Z-1.000000
G01 X187.591115 Y206.906685 Z-1.000000
G01 X128.872488 Y206.842545 Z-1.000000
G01 X128.901314 Y199.211753 Z-1.000000
G01 X115.111712 Y199.196690 Z-1.000000
G01 X115.024011 Y222.412689 Z-1.000000
G01 X128.813613 Y222.427752 Z-1.000000
G00 Z5.000000

(End cutting path id: path4645)


(Start cutting path id: path4643)
(Change tool to Default tool)

G00 Z5.000000
G00 X115.214183 Y172.070885

G01 Z-1.000000 F100.0
G01 X115.125259 Y195.610462 Z-1.000000 F400.000000
G01 X187.633488 Y195.689664 Z-1.000000
G01 X187.722411 Y172.150087 Z-1.000000
G01 X115.214183 Y172.070885 Z-1.000000
G00 Z5.000000

(Change tool to Default tool)

G00 Z5.000000
G00 X173.951990 Y180.332136

G01 Z-1.000000 F100.0
G01 X173.924895 Y187.504567 Z-1.000000 F400.000000
G01 X128.945725 Y187.455436 Z-1.000000
G01 X128.972819 Y180.283004 Z-1.000000
G01 X173.951990 Y180.332136 Z-1.000000
G00 Z5.000000

(End cutting path id: path4643)


(Start cutting path id: path4641)
(Change tool to Default tool)

G00 Z5.000000
G00 X157.548762 Y168.665722

G01 Z-1.000000 F100.0
G01 X187.735449 Y168.698695 Z-1.000000 F400.000000
G01 X187.804510 Y150.417099 Z-1.000000
G01 X177.796081 Y145.013343 Z-1.000000
G01 X115.316653 Y144.945095 Z-1.000000
G01 X115.253501 Y161.662777 Z-1.000000
G01 X124.810128 Y167.200861 Z-1.000000
G01 X144.767439 Y167.222661 Z-1.000000
G01 X150.498320 Y163.400015 Z-1.000000
G01 X157.548762 Y168.665722 Z-1.000000
G00 Z5.000000

(Change tool to Default tool)

G00 Z5.000000
G00 X174.026958 Y160.486628

G01 Z-1.000000 F100.0
G01 X157.579727 Y160.468662 Z-1.000000 F400.000000
G01 X157.607331 Y153.161416 Z-1.000000
G01 X174.054562 Y153.179381 Z-1.000000
G01 X174.026958 Y160.486628 Z-1.000000
G00 Z5.000000

(Change tool to Default tool)

G00 Z5.000000
G00 X144.045838 Y159.132638

G01 Z-1.000000 F100.0
G01 X129.052779 Y159.116261 Z-1.000000 F400.000000
G01 X129.075392 Y153.130250 Z-1.000000
G01 X144.068451 Y153.146627 Z-1.000000
G01 X144.045838 Y159.132638 Z-1.000000
G00 Z5.000000

(End cutting path id: path4641)


(Start cutting path id: path4639)
(Change tool to Default tool)

G00 Z5.000000
G00 X129.118784 Y141.643584

G01 Z-1.000000 F100.0
G01 X129.146592 Y134.282408 Z-1.000000 F400.000000
G01 X187.865218 Y134.346548 Z-1.000000
G01 X187.896286 Y126.122526 Z-1.000000
G01 X129.177659 Y126.058387 Z-1.000000
G01 X129.206485 Y118.427576 Z-1.000000
G01 X115.416883 Y118.412513 Z-1.000000
G01 X115.329182 Y141.628521 Z-1.000000
G01 X129.118784 Y141.643584 Z-1.000000
G00 Z5.000000

(End cutting path id: path4639)


(Start cutting path id: path4637)
(Change tool to Default tool)

G00 Z5.000000
G00 X187.962392 Y108.622890

G01 Z-1.000000 F100.0
G01 X161.755416 Y103.740723 Z-1.000000 F400.000000
G01 X161.763565 Y101.583601 Z-1.000000
G01 X187.988876 Y101.612248 Z-1.000000
G01 X188.019739 Y93.442156 Z-1.000000
G01 X125.740888 Y93.374128 Z-1.000000
G01 X115.489101 Y99.295036 Z-1.000000
G01 X115.426050 Y115.985752 Z-1.000000
G01 X161.508392 Y116.036089 Z-1.000000
G01 X161.525097 Y111.613992 Z-1.000000
G01 X187.931427 Y116.819947 Z-1.000000
G01 X187.962392 Y108.622890 Z-1.000000
G00 Z5.000000

(Change tool to Default tool)

G00 Z5.000000
G00 X148.150806 Y107.851373

G01 Z-1.000000 F100.0
G01 X129.246516 Y107.830723 Z-1.000000 F400.000000
G01 X129.270249 Y101.548108 Z-1.000000
G01 X148.174539 Y101.568758 Z-1.000000
G01 X148.150806 Y107.851373 Z-1.000000
G00 Z5.000000

(End cutting path id: path4637)


(Start cutting path id: path4635)
(Change tool to Default tool)

G00 Z5.000000
G00 X188.090633 Y74.675209

G01 Z-1.000000 F100.0
G01 X188.121599 Y66.478149 Z-1.000000 F400.000000
G01 X127.096349 Y66.411490 Z-1.000000
G01 X115.589637 Y72.681562 Z-1.000000
G01 X115.525262 Y89.722812 Z-1.000000
G01 X188.033490 Y89.802014 Z-1.000000
G01 X188.064354 Y81.631922 Z-1.000000
G01 X164.245951 Y81.605905 Z-1.000000
G01 X164.272231 Y74.649191 Z-1.000000
G01 X188.090633 Y74.675209 Z-1.000000
G00 Z5.000000

(Change tool to Default tool)

G00 Z5.000000
G00 X150.456355 Y81.590842

G01 Z-1.000000 F100.0
G01 X129.345727 Y81.567783 Z-1.000000 F400.000000
G01 X129.372007 Y74.611069 Z-1.000000
G01 X150.482635 Y74.634129 Z-1.000000
G01 X150.456355 Y81.590842 Z-1.000000
G00 Z5.000000

(End cutting path id: path4635)


(Footer)
M5
G00 X0.0000 Y0.0000
M2
(Using default footer. To add your own footer create file "footer" in the output dir.)
(end)
%